**kern	**kern	**dynam
*part1	*part1	*part1
*staff2	*staff1	*
*I"Piano	*	*
*clefF4	*clefG2	*
*k[b-e-a-]	*k[b-e-a-]	*
=1	=1	=1
((4.EE- 4.E-	(((4.gn 4.dd-X [4.ee- 4.ggn	f >
=	=	=
4.AAA-)) 4.AA-	4.a-))) 4.cc 4.ee-] 4.aa-	.
=	=	=
!	!LO:TX:a:t=	!
4.r	4.r	]
=	=	=
(4.c	16e-LL	pp
.	16a-	.
.	16e-	.
.	16a-	.
.	16e-	.
.	16a-JJ	.
=	=	=
4.B-)	16gLL	.
.	16e-	.
.	16g	.
.	16e-	.
.	16g	.
.	16e-JJ	.
=	=	=
*^	*	*
(4.A-	(4.BB-	16dLL	.
.	.	16f	.
.	.	16d	.
.	.	16f	.
.	.	16d	.
.	.	16fJJ	.
=	=	=	=
16GLL)	4.EE-)	4.e-	.
16B-	.	.	.
16G	.	.	.
16B-	.	.	.
16G	.	.	.
16B-JJ	.	.	.
*v	*v	*	*
=	=	=
*-	*-	*-
!!!system-decoration: {(s1,s2)}
